images/svg/10.Vercel.svg

<?xml version="1.0" encoding="UTF-8"?><svg xmlns="http://www.w3.org/2000/svg" viewBox="0 0 300 300"><defs><style>.cls-1{fill:#fff;}.cls-2{fill:#010101;}</style></defs><g id="Fondos-Blancos"><rect class="cls-1" width="300" height="300"/></g><g id="Texto"><path class="cls-2" d="m149.75,139.27c-9.36,0-16.12,6.12-16.12,15.28s7.6,15.28,16.96,15.28c5.68,0,10.64-2.24,13.76-6l-6.48-3.76c-1.72,1.88-4.32,2.96-7.24,2.96-4.08,0-7.52-2.12-8.8-5.52h23.81c.2-.96.28-1.92.28-2.96-.04-9.2-6.76-15.28-16.16-15.28h0Zm-8.04,12.28c1.08-3.4,3.96-5.52,8.04-5.52s6.96,2.12,8.04,5.52h-16.08Zm99.46-12.28c-9.36,0-16.12,6.12-16.12,15.28s7.6,15.28,16.96,15.28c5.68,0,10.64-2.24,13.76-6l-6.48-3.76c-1.72,1.88-4.32,2.96-7.24,2.96-4.08,0-7.52-2.12-8.8-5.52h23.81c.2-.96.28-1.92.28-2.96,0-9.2-6.76-15.28-16.16-15.28h0Zm-8,12.28c1.08-3.4,3.96-5.52,8.04-5.52s6.96,2.12,8.04,5.52h-16.08Zm-33.13,3c0,5.08,3.32,8.48,8.48,8.48,3.48,0,6.12-1.6,7.48-4.16l6.52,3.76c-2.68,4.48-7.76,7.2-14,7.2-9.4,0-16.12-6.12-16.12-15.28s6.76-15.28,16.12-15.28c6.24,0,11.28,2.72,14,7.2l-6.52,3.76c-1.36-2.6-3.96-4.16-7.48-4.16-5.16-.04-8.48,3.36-8.48,8.48Zm70.02-24.65v39.05h-7.64v-39.05h7.64Zm-208.69-4.24l31.37,54.33H30l31.37-54.33Zm78.46,4.24l-23.53,40.77-23.53-40.77h8.84l14.72,25.49,14.72-25.49h8.76Zm50.01,10.2v8.24c-.84-.24-1.76-.4-2.72-.4-4.92,0-8.48,3.4-8.48,8.48v12.56h-7.64v-28.89h7.64v7.8c0-4.32,5-7.8,11.2-7.8Z"/></g></svg>

<?xml version="1.0" encoding="utf-8"?>
<!-- Generator: Adobe Illustrator 25.4.1, SVG Export Plug-In . SVG Version: 6.00 Build 0)  -->
<svg version="1.1" xmlns="http://www.w3.org/2000/svg" xmlns:xlink="http://www.w3.org/1999/xlink" x="0px" y="0px"
	 viewBox="0 0 300 300" style="enable-background:new 0 0 300 300;" xml:space="preserve">
<style type="text/css">
	.st0{fill:#4674B9;}
	.st1{fill:#2C2C32;}
	.st2{fill:#010101;}
	.st3{fill:#F6DF19;}
	.st4{fill:#2363AF;}
	.st5{fill:#F0672B;}
	.st6{fill:#101215;}
	.st7{fill:#492D8C;}
	.st8{fill:#F36C3D;}
	.st9{fill:#7756A3;}
	.st10{fill:#679E63;}
	.st11{fill:#484848;}
	.st12{fill:#1B1F23;}
	.st13{fill:#EF7729;}
	.st14{fill:#4791CE;}
	.st15{fill:#F6F6F6;}
	.st16{fill:#4A4A4D;}
	.st17{fill:#C54027;}
	.st18{fill:#3978BD;}
	.st19{fill:#CC6899;}
	.st20{fill:#12364F;}
	.st21{fill:#316A9A;}
	.st22{fill:#FFD53E;}
	.st23{fill:#693994;}
	.st24{fill:#FFFFFF;}
	.st25{fill-rule:evenodd;clip-rule:evenodd;fill:#FFFFFF;}
	.st26{fill-rule:evenodd;clip-rule:evenodd;fill:url(#XMLID_00000108294127208605235050000003394397249516521095_);}
	.st27{clip-path:url(#XMLID_00000005232025107690391530000010450291816114474371_);}
	.st28{fill:none;}
	.st29{opacity:0.66;fill:#4B4B4B;}
	.st30{fill:url(#SVGID_1_);}
	.st31{opacity:0.05;fill:#010101;enable-background:new    ;}
	.st32{fill:#17AA4F;}
	.st33{fill:#B8C4C2;}
	.st34{fill:#14924F;}
	.st35{fill:#22323D;}
	.st36{fill:#F26424;}
	.st37{fill:#4E4E4E;}
	.st38{fill:#3B2F14;}
	.st39{fill:#F58772;}
	.st40{fill:#F05233;}
	.st41{fill:#433527;}
	.st42{fill:#DD1E34;}
	.st43{fill:#C32033;}
	.st44{fill:#F9F9FA;}
	.st45{fill:#7253A2;}
	.st46{fill:#4674B9;stroke:#FFFFFF;stroke-width:8;stroke-miterlimit:10;}
	.st47{fill:#EF4623;}
	.st48{fill:#4EB987;}
	.st49{fill:#455567;}
	.st50{fill:#F1F2F2;}
	.st51{fill:#70CEEF;}
	.st52{fill:#70CFF0;}
	.st53{opacity:0.7;fill:#2C384A;enable-background:new    ;}
	.st54{fill:url(#path-2_00000044856016515462337670000005558720878454850176_);}
	.st55{filter:url(#Adobe_OpacityMaskFilter);}
	.st56{mask:url(#mask-3_3_);}
	.st57{fill:#F9A01B;}
	.st58{fill:#F47D20;}
	.st59{fill:#FFCB2A;}
	.st60{fill:#FFFFFF;fill-opacity:0.2;}
	.st61{opacity:0.2;fill:#A52A22;enable-background:new    ;}
	.st62{filter:url(#Adobe_OpacityMaskFilter_00000138557742369368246740000013880175901169182872_);}
	.st63{mask:url(#mask-3_2_);fill:none;}
	.st64{filter:url(#Adobe_OpacityMaskFilter_00000183207057890992032360000001993880004838810530_);}
	.st65{mask:url(#mask-3_1_);fill:url(#_Path_5_00000070108414452250096790000016966465810932933803_);}
	.st66{fill:#5BADE0;}
	.st67{fill:#4699D4;}
	.st68{fill:#318ECD;}
	.st69{fill:#3390CE;}
	.st70{fill:#1773B0;}
	.st71{fill:#489BD5;}
	.st72{fill:#2884C6;}
	.st73{fill:#2682C5;}
	.st74{fill:#2480C4;}
	.st75{fill:#237EC2;}
	.st76{fill:#4497D2;}
	.st77{fill:#1571AF;}
	.st78{fill:#237DC1;}
	.st79{fill:#1B72AD;}
	.st80{fill:#1B6CA3;}
	.st81{fill:#196FA9;}
	.st82{fill:#1D77BD;}
	.st83{fill:#207ABF;}
	.st84{fill:#2D7FB8;}
	.st85{fill:#3383BA;}
	.st86{fill:#287EB6;}
	.st87{fill:#63B0E1;}
	.st88{fill:#3887BC;}
	.st89{fill:#3B89BD;}
	.st90{fill:#3792D0;}
	.st91{fill:#2A78AC;}
	.st92{fill:#2973A8;}
	.st93{fill:#2A7CB3;}
	.st94{fill:#3F88BA;}
	.st95{fill:#59ABDF;}
	.st96{fill:#3A7FAF;}
	.st97{fill:#317BAC;}
	.st98{fill:#367DAE;}
	.st99{fill:#2C8BCB;}
	.st100{fill:#2E8DCC;}
	.st101{fill:#1A75B1;}
	.st102{fill:#1F77B2;}
	.st103{fill:#1D74AF;}
	.st104{fill:#1D72AA;}
	.st105{fill:#206FA5;}
	.st106{fill:#499FD8;}
	.st107{fill:#489CD6;}
	.st108{fill:#4DA1D9;}
	.st109{fill:#51A6DC;}
	.st110{fill:#4FA4DB;}
	.st111{fill:#0F72B7;}
	.st112{fill:#0770B7;}
	.st113{fill:#56A8DD;}
	.st114{fill:#2A88C9;}
	.st115{fill:#227FC3;}
	.st116{fill:#1F7DC1;}
	.st117{fill:#1D7BC0;}
	.st118{fill:#1474BB;}
	.st119{fill:#1071B9;}
	.st120{fill:#1E79BF;}
	.st121{fill:#1875BC;}
	.st122{fill:#3381B5;}
	.st123{fill:#2F7FB4;}
	.st124{fill:#3883B6;}
	.st125{fill:#267BB5;}
	.st126{fill:#297AB2;}
	.st127{fill:#3E86B6;}
	.st128{fill:#3C81B1;}
	.st129{fill:#3B87B9;}
	.st130{fill:#3A85B8;}
	.st131{fill:#2378B1;}
	.st132{fill:#2675AC;}
	.st133{fill:#2572A6;}
	.st134{fill:#0D74B8;}
	.st135{fill:#3882B4;}
	.st136{fill:#367FB2;}
	.st137{fill:#307CAF;}
	.st138{fill:#337EB0;}
	.st139{fill:#2271A5;}
	.st140{fill:#0E75BB;}
	.st141{fill:#0D73BB;}
	.st142{fill:#0B74BC;}
	.st143{fill:#1578BC;}
	.st144{fill:#1C7CC1;}
	.st145{fill:#2575AB;}
	.st146{fill:#1B7BC0;}
	.st147{fill:#1876BD;}
	.st148{fill:#1978BE;}
	.st149{fill:#3C84B4;}
	.st150{fill-rule:evenodd;clip-rule:evenodd;fill:#687E91;}
	.st151{fill:#037690;}
	.st152{fill:#F29220;}
	.st153{fill-rule:evenodd;clip-rule:evenodd;fill:#F29220;}
	.st154{fill-rule:evenodd;clip-rule:evenodd;fill:#037690;}
	.st155{display:none;}
	.st156{display:inline;fill-rule:evenodd;clip-rule:evenodd;fill:#2BB673;}
	.st157{display:inline;opacity:0.15;fill-rule:evenodd;clip-rule:evenodd;fill:#2BB673;}
</style>
<g id="Fondos_1_">
</g>
<g id="Texto">
	<path class="st2" d="M149.75,139.27c-9.36,0-16.12,6.12-16.12,15.28c0,9.16,7.6,15.28,16.96,15.28c5.68,0,10.64-2.24,13.76-6
		l-6.48-3.76c-1.72,1.88-4.32,2.96-7.24,2.96c-4.08,0-7.52-2.12-8.8-5.52h23.81c0.2-0.96,0.28-1.92,0.28-2.96
		C165.87,145.35,159.15,139.27,149.75,139.27L149.75,139.27z M141.71,151.55c1.08-3.4,3.96-5.52,8.04-5.52
		c4.08,0,6.96,2.12,8.04,5.52H141.71z M241.17,139.27c-9.36,0-16.12,6.12-16.12,15.28c0,9.16,7.6,15.28,16.96,15.28
		c5.68,0,10.64-2.24,13.76-6l-6.48-3.76c-1.72,1.88-4.32,2.96-7.24,2.96c-4.08,0-7.52-2.12-8.8-5.52h23.81
		c0.2-0.96,0.28-1.92,0.28-2.96C257.34,145.35,250.57,139.27,241.17,139.27L241.17,139.27z M233.17,151.55
		c1.08-3.4,3.96-5.52,8.04-5.52c4.08,0,6.96,2.12,8.04,5.52H233.17L233.17,151.55z M200.04,154.55c0,5.08,3.32,8.48,8.48,8.48
		c3.48,0,6.12-1.6,7.48-4.16l6.52,3.76c-2.68,4.48-7.76,7.2-14,7.2c-9.4,0-16.12-6.12-16.12-15.28c0-9.16,6.76-15.28,16.12-15.28
		c6.24,0,11.28,2.72,14,7.2l-6.52,3.76c-1.36-2.6-3.96-4.16-7.48-4.16C203.36,146.03,200.04,149.43,200.04,154.55z M270.06,129.91
		v39.05h-7.64v-39.05H270.06z M61.37,125.67L92.74,180H30L61.37,125.67z M139.83,129.91l-23.53,40.77l-23.53-40.77h8.84l14.72,25.49
		l14.72-25.49H139.83L139.83,129.91z M189.84,140.11v8.24c-0.84-0.24-1.76-0.4-2.72-0.4c-4.92,0-8.48,3.4-8.48,8.48V169h-7.64
		v-28.89h7.64v7.8C178.64,143.59,183.64,140.11,189.84,140.11z"/>
</g>
<g id="Guides">
</g>
<g id="Layer_5" class="st155">
	<rect x="59.79" y="59.6" class="st156" width="180.21" height="180.21"/>
</g>
</svg>
